Catalina-light/actions/16/image-crop.svg

<svg xmlns="http://www.w3.org/2000/svg" width="16" height="16" viewBox="0 0 16 16">
 <defs>
  <style id="current-color-scheme" type="text/css">
   .ColorScheme-Text { color:#5c616c; } .ColorScheme-Highlight { color:#5294e2; }
  </style>
 </defs>
 <path style="fill:currentColor" class="ColorScheme-Text" d="M 3 0 L 3 2 L 5 2 L 5 0 L 3 0 z M 0 3 L 0 5 L 11 5 L 11 16 L 13 16 L 13 5 L 13 4.0039062 C 13 4.0039062 13 3.0039062 12 3.0039062 L 0 3 z M 3 6 L 3 12.003906 C 3 13.003906 4 13.003906 4 13.003906 L 5.5 13.003906 L 10 13 L 10 11 L 5 11 L 5 6 L 3 6 z M 14 11 L 14 13 L 16 13 L 16 11 L 14 11 z"/>
</svg>

<svg width="16" height="16" viewBox="0 0 16 16" xmlns="http://www.w3.org/2000/svg">
<defs>
<style id="current-color-scheme" type="text/css">.ColorScheme-Text { color:#5c616c; } .ColorScheme-Highlight { color:#5294e2; }</style>
</defs>
<path class="ColorScheme-Text" d="m3 0v2h2v-2h-2zm-3 3v2h11v11h2v-11-0.99609s0-1-1-1l-12-0.0039062zm3 3v6.0039c0 1 1 1 1 1h1.5l4.5-0.003906v-2h-5v-5h-2zm11 5v2h2v-2h-2z" fill="currentColor"/>
</svg>
